projects/samara2/images/icons/shield.svg

<svg width="47" height="48" viewBox="0 0 47 48" fill="none" xmlns="http://www.w3.org/2000/svg">
<g clip-path="url(#clip0_363_1967)">
<path d="M23.5 14.2695C18.1852 14.2695 13.8613 18.5934 13.8613 23.9082C13.8613 29.223 18.1852 33.5469 23.5 33.5469C28.8148 33.5469 33.1387 29.223 33.1387 23.9082C33.1387 18.5934 28.8149 14.2695 23.5 14.2695ZM29.9815 22.128L22.6378 29.4717C22.3689 29.7405 22.0165 29.875 21.6641 29.875C21.3117 29.875 20.9592 29.7405 20.6905 29.4716L17.0186 25.7998C16.4808 25.2621 16.4808 24.3902 17.0186 23.8525C17.5562 23.3148 18.4281 23.3148 18.9659 23.8525L21.6641 26.5508L28.0342 20.1806C28.5719 19.643 29.4438 19.643 29.9815 20.1806C30.5192 20.7184 30.5192 21.5902 29.9815 22.128Z" fill="white"/>
<path d="M40.0234 7.8437C34.4717 7.8437 29.2521 5.6817 25.3264 1.75601L24.4737 0.90331C23.9361 0.365472 23.0641 0.365655 22.5264 0.90331L21.6736 1.75601C17.7479 5.6817 12.5284 7.8437 6.97656 7.8437C6.21612 7.8437 5.59961 8.46021 5.59961 9.22066V22.9555C5.59961 33.996 12.613 43.8295 23.0516 47.425C23.1969 47.475 23.3484 47.5 23.5 47.5C23.6516 47.5 23.8032 47.475 23.9484 47.425C34.387 43.8295 41.4004 33.9959 41.4004 22.9555V9.22066C41.4004 8.46021 40.7839 7.8437 40.0234 7.8437ZM23.5 36.3007C16.6667 36.3007 11.1074 30.7414 11.1074 23.9082C11.1074 17.0749 16.6667 11.5156 23.5 11.5156C30.3333 11.5156 35.8926 17.0749 35.8926 23.9082C35.8926 30.7414 30.3334 36.3007 23.5 36.3007Z" fill="white"/>
</g>
<defs>
<clipPath id="clip0_363_1967">
<rect width="47" height="47" fill="white" transform="translate(0 0.5)"/>
</clipPath>
</defs>
</svg>

<svg width="47" height="48" fill="none" xmlns="http://www.w3.org/2000/svg"><g clip-path="url(#clip0_363_1967)" fill="#fff"><path d="M23.5 14.27c-5.315 0-9.639 4.323-9.639 9.638 0 5.315 4.324 9.639 9.639 9.639 5.315 0 9.639-4.324 9.639-9.639 0-5.315-4.324-9.639-9.639-9.639zm6.482 7.858l-7.344 7.344a1.373 1.373 0 01-1.948 0L17.02 25.8a1.377 1.377 0 111.947-1.948l2.698 2.699 6.37-6.37a1.377 1.377 0 011.948 1.947z"/><path d="M40.023 7.844a20.649 20.649 0 01-14.697-6.088l-.852-.853a1.377 1.377 0 00-1.948 0l-.852.853A20.649 20.649 0 016.977 7.844c-.76 0-1.377.616-1.377 1.377v13.735a25.889 25.889 0 0017.452 24.469 1.378 1.378 0 00.896 0A25.889 25.889 0 0041.4 22.955V9.222c0-.76-.616-1.377-1.377-1.377zM23.5 36.3c-6.833 0-12.393-5.56-12.393-12.393 0-6.833 5.56-12.392 12.393-12.392 6.833 0 12.393 5.559 12.393 12.392 0 6.833-5.56 12.393-12.393 12.393z"/></g><defs><clipPath id="clip0_363_1967"><path fill="#fff" transform="translate(0 .5)" d="M0 0h47v47H0z"/></clipPath></defs></svg>
